icons/svg/seamark_big/fog_signal_additional_center_big_night.svg

<?xml version="1.0" encoding="UTF-8" standalone="no"?>
<svg
   xmlns:dc="http://purl.org/dc/elements/1.1/"
   xmlns:cc="http://creativecommons.org/ns#"
   xmlns:rdf="http://www.w3.org/1999/02/22-rdf-syntax-ns#"
   xmlns:svg="http://www.w3.org/2000/svg"
   xmlns="http://www.w3.org/2000/svg"
   xmlns:sodipodi="http://sodipodi.sourceforge.net/DTD/sodipodi-0.dtd"
   xmlns:inkscape="http://www.inkscape.org/namespaces/inkscape"
   width="1060"
   height="1060"
   id="svg2"
   version="1.1"
   inkscape:version="0.48.4 r9939"
   sodipodi:docname="fog_signal_additional_center_big_night.svg">
  <defs
     id="defs13">
    <inkscape:path-effect
       effect="gears"
       id="path-effect3774"
       is_visible="true"
       teeth="6"
       phi="-1.2" />
    <inkscape:path-effect
       effect="bend_path"
       id="path-effect3772"
       is_visible="false"
       bendpath="m 95.790098,316.51174 c 144.429032,-206.42506 223.313032,-11.7428 339.548092,0"
       prop_scale="1.19"
       scale_y_rel="false"
       vertical="false"
       bendpath-nodetypes="cc" />
  </defs>
  <sodipodi:namedview
     pagecolor="#ffffff"
     bordercolor="#666666"
     borderopacity="1"
     objecttolerance="10"
     gridtolerance="10"
     guidetolerance="10"
     inkscape:pageopacity="0"
     inkscape:pageshadow="2"
     inkscape:window-width="1920"
     inkscape:window-height="1004"
     id="namedview11"
     showgrid="false"
     inkscape:zoom="0.28771931"
     inkscape:cx="1023.1941"
     inkscape:cy="751.08696"
     inkscape:window-x="1680"
     inkscape:window-y="0"
     inkscape:window-maximized="1"
     inkscape:current-layer="svg2"
     inkscape:snap-object-midpoints="true" />
  <metadata
     id="metadata2975">image/svg+xmlen<rdf:RDF>
  <cc:Work
     rdf:about="">
    <dc:format>image/svg+xml</dc:format>
    <dc:type
       rdf:resource="http://purl.org/dc/dcmitype/StillImage" />
    <dc:title></dc:title>
  </cc:Work>
</rdf:RDF>
</metadata>
  <path
     style="font-size:medium;font-style:normal;font-variant:normal;font-weight:normal;font-stretch:normal;text-indent:0;text-align:start;text-decoration:none;line-height:normal;letter-spacing:normal;word-spacing:normal;text-transform:none;direction:ltr;block-progression:tb;writing-mode:lr-tb;text-anchor:start;baseline-shift:baseline;opacity:0.82399998;color:#000000;fill:#d89cd8;fill-opacity:1;fill-rule:nonzero;stroke:none;stroke-width:18.80177879;marker:none;visibility:visible;display:inline;overflow:visible;enable-background:accumulate;font-family:Sans;-inkscape-font-specification:Sans"
     d="m 54.5,641.87347 c -18.010639,-11.64938 -32.416522,-7.97855 -43.875,8.21875 16.195633,86.83362 54.468314,165.94293 108.78125,231.28125 15.03376,-1.343 29.59259,-3.7454 34.1875,-28.375 C 104.09463,793.40867 69.226437,721.20397 54.5,641.87347 z"
     id="path2995"
     inkscape:connector-curvature="0"
     sodipodi:nodetypes="ccccc" />
  <path
     style="font-size:medium;font-style:normal;font-variant:normal;font-weight:normal;font-stretch:normal;text-indent:0;text-align:start;text-decoration:none;line-height:normal;letter-spacing:normal;word-spacing:normal;text-transform:none;direction:ltr;block-progression:tb;writing-mode:lr-tb;text-anchor:start;baseline-shift:baseline;opacity:0.82399998;color:#000000;fill:#d89cd8;fill-opacity:1;fill-rule:nonzero;stroke:none;stroke-width:18.80177879;marker:none;visibility:visible;display:inline;overflow:visible;enable-background:accumulate;font-family:Sans;-inkscape-font-specification:Sans"
     d="m 132.9375,627.18597 c -15.26303,-10.26776 -28.98352,-10.04626 -40.15625,7.5 13.53566,72.57345 45.50952,138.70118 90.90625,193.3125 15.27296,0.42976 28.93868,-2.15404 31.28125,-25.96875 C 173.98191,752.68074 145.12963,692.88593 132.9375,627.18597 z"
     id="path2995-9"
     inkscape:connector-curvature="0"
     sodipodi:nodetypes="ccccc" />
  <path
     style="font-size:medium;font-style:normal;font-variant:normal;font-weight:normal;font-stretch:normal;text-indent:0;text-align:start;text-decoration:none;line-height:normal;letter-spacing:normal;word-spacing:normal;text-transform:none;direction:ltr;block-progression:tb;writing-mode:lr-tb;text-anchor:start;baseline-shift:baseline;opacity:0.82399998;color:#000000;fill:#d89cd8;fill-opacity:1;fill-rule:nonzero;stroke:none;stroke-width:18.80177879;marker:none;visibility:visible;display:inline;overflow:visible;enable-background:accumulate;font-family:Sans;-inkscape-font-specification:Sans"
     d="m 205.09375,613.65472 c -15.93617,-11.78747 -28.1459,-8.20339 -37.53125,7.03125 11.11467,59.5781 37.38645,113.87834 74.65625,158.71875 14.8341,-0.30765 28.14104,-2.95096 29.25,-24.25 -33.16222,-39.93458 -56.5154,-88.32549 -66.375,-141.5 z"
     id="path2995-9-7"
     inkscape:connector-curvature="0"
     sodipodi:nodetypes="ccccc" />
</svg>

<svg width="1060" height="1060" viewBox="0 0 1060 1060" fill="none" xmlns="http://www.w3.org/2000/svg">
<path opacity="0.824" d="M54.5 641.873C36.4894 630.224 22.0835 633.895 10.625 650.092C26.8206 736.926 65.0933 816.035 119.406 881.373C134.44 880.03 148.999 877.628 153.594 852.998C104.095 793.409 69.2264 721.204 54.5 641.873Z" fill="#D89CD8"/>
<path opacity="0.824" d="M132.938 627.186C117.674 616.918 103.954 617.14 92.7812 634.686C106.317 707.259 138.291 773.387 183.688 827.998C198.96 828.428 212.626 825.844 214.969 802.03C173.982 752.681 145.13 692.886 132.938 627.186Z" fill="#D89CD8"/>
<path opacity="0.824" d="M205.094 613.655C189.158 601.867 176.948 605.451 167.562 620.686C178.677 680.264 204.949 734.564 242.219 779.405C257.053 779.097 270.36 776.454 271.469 755.155C238.307 715.22 214.953 666.829 205.094 613.655Z" fill="#D89CD8"/>
</svg>
